cps (140 / 120)

hush

d1 $ s "808" <| n (run 6) -- 6 misc 808 sound
d1 $ slow 2 $ s "808bd" <| n (run 25) -- 25 rather similar 808 kicks!
d1 $ fast 2 $ s "808hc" <| n (run 5) -- 5 808 high congas
d1 $ fast 2 $ s "808ht" <| n (run 5) -- 5 808 high toms, bit noisy
d1 $ fast 2 $ s "808lc" <| n (run 5) -- 5 808 low congas, noisy
d1 $ fast 2 $ s "808mc" <| n (run 5) -- 5 808 medium congas
d1 $ slow 2 $ s "808sd" <| n (run 25) -- 25 808 snares
d1 $ slow 2 $ s "ab" <| n (run 12) -- nice subtle drum sounds
d1 $ s "ade" <| n (run 10) # cut 1 -- various long samples
d1 $ s "ades2" <| n (run 9) # gain 1.3 -- meh, short quiet noisy sounds
d1 $ s "ades3" <| n (run 7) -- short noisy sounds, lowish pitch
d1 $ s "ades4" <| n (run 6) -- short high pitched sounds
d1 $ slow 2 $ s "amencutup" <| n (shuffle 8 $ run 32) # speed "{1,2,3}%8" -- wisott
d1 $ slow 4 $ s "armora" <| n (run 7) -- probably useless low pitched noise
d1 $ s "arp" <| n (run 2) -- two synth notes, low and high, both c#?!?
d1 $ slow 4 $ s "superpiano" <| n "c d f g a c6 d6 f6 g6 a6 c7"
d1 $ s "arpy" <| up "c d e f g a b c6" -- aha!
d1 $ s "arpy" -- in estuary arpy comes out a tone too high in D major! can subtract 2 maybe fixed now
d1 $ slow 4 $ s "baa" <| n (run 7) -- sheep sounds, why?!?
d1 $ slow 4 $ s "baa2" <| n (run 7) -- rather simlar to the above? same?
d1 $ slow 2 $ s "bass" <| n (run 4) -- four short bass sounds, nasty abrupt release
d1 $ s "bass0" <| n (run 3) -- one highly distorted bass drum, plus?!?!?
d1 $ slow 8 $ s "bass1" <| n (run 30) -- thirty synth bass sounds, some long, f or c
d1 $ s "bass2" <| n "[ 0 .. 4 ]" -- five aggressive tonal kicks
d1 $ slow 4 $ s "bass3!44" # n (run 11) -- eleven bass sounds, odd mix of pitches
d1 $ slow 4 $ s "bassdm" <| n (run 24) -- 24 rather similar acoustic-ish kicks
d1 $ s "bassfoo" <| n (run 3) -- same bank as bass0
d1 $ slow 4 $ s "bd" <| n (run 24) -- lots of electo kicks, mostly quite similar
d1 $ s "bend" <| n (run 4) -- four subtle noisy sounds
d1 $ s "bin" <| n (run 2) -- yup, two dustbin hits, kind of ok, could be a snare
d1 $ slow 4 $ s "birds" <| n (run 10) -- chaffinches, nightingales etc
d1 $ slow 2 $ s "birds3" <| n (run 19) -- very short noisy sounds, highish pitch
d1 $ s "bleep" <| n (run 13) -- rtd2 ish, loud!
d1 $ s "blip" <| n (run 13) -- two short pitched sounds, minor seventh apart
d1 $ slow 2 $ s "bottle" <| n (run 13) -- short sounds, might be a bottle
d1 $ s "can" <| n (run 16) # speed "0.125 1!15" -- iya
d1 $ s "casio" <| n (run 3) -- just three cheapo 'drum' sounds
d1 $ fast 2 $ s "casio" <| n "1 2 3 2" # speed 0.25 # cut 1 -- tak
d1 $ s "cb" -- omg what is that sound, so familiar! iya -- nearly same as 808:0
d1 $ s "chin" <| n (run 4) # gain 2 -- very quiet synthetic clicks
d1 $ s "circus" <| n (run 3) -- three strange and pointless sounds
d1 $ s "clak" <| n (run 2) # gain 2 -- two quiet typewriters clicks, or clock ticks?
d1 $ s "click" <| n (run 4) -- four glitch sounds, maybe useful
d1 $ s "e" <| n (run 8) -- 8 short and quiet glitchy sounds, similar
d1 $ slow 2 $ s "east" <| n (run 9) -- 9 'world' drum sounds, ok
d1 $ slow 4 $ s "em2" <| n (run 6) -- six longer sounds, kalimba, flute, loon?
d1 $ s "feel" <| n (run 7) -- quite nice bank of 7 drum sounds
d1 $ slow 2 $ s "feelfx" <| n (run 8) -- varied effected sounds, bit longer, ok
d1 $ slow 16 $ s "fm" <| n (run 17) -- whole bank of loops! inc '31 seconds…'
d1 $ slow 2 $ s "gab" <| n (run 10) -- bitcrushed hits
d1 $ s "gabba" <| n (run 4) -- bitcrushed kit, four sounds
d1 $ s "gabbaloud" <| n (run 4) -- wisott
d1 $ s "glitch" <| n (run 8) -- iya Eb/Ab stab at 5
d1 $ s "glitch2" <| n (run 8) -- same?!?
d1 $ slow 4 $ s "gtr" <| n (run 3) -- three long C notes elect guitar
d1 $ s "h" <| n (run 7) -- short baby sounds?
d1 $ slow 8 $ s "hand" <| n (run 17) -- mix of quiet clap sounds, some longer
d1 $ s "hardkick" <| n (run 6) -- 6 rather loud crushed kicks
d1 $ s "haw" <| n (run 6) -- 6 odd short hits
d1 $ s "hc" <| n (run 6) -- 6 closed hats
d1 $ s "hmm" -- female voice saying 'hmm'
d1 $ every 2 (fast 2) $ s "hoover" <| n (shuffle 6 $ run 6) -- six loud hoover bass sounds
d1 $ s "house" <| n (run 8) -- quite a nice kit, one pitched sound at 5 ~ Ebm
d1 $ s "if" <| n (run 5) -- five bitcrushed hits
d1 $ slow 2 $  s "industrial" <| n (run 32) -- iya mix of metallic percussive sounds
d1 $ s "jazz" <| n (run 8) -- totally not jazzy at all kit!
d1 $ slow 8 $ s "jungbass" <| n (run 20) -- mostly longish sub-bass kind of sounds
d1 $ s "jungle" <| n (run 13) # gain 1.3 -- quiet 'jungle' kit, amen-ish
d1 $ slow 4 $ s "juno" <| n (run 12) -- lead/pad notes and chords, C/Cminor
d1 $ slow 4 $ s "jvbass" <| n (run 13) -- selection synth notes, black notes starting Gb
d1 $ slow 4 $ s "koy" <| n 1 -- two koyaanisqatsi long samples, more or less sample
d1 $ slow 4 $ s "kurt" <| n (run 7) -- vocal samples with telephone eq?
d1 $ slow 2 $ s "latibro" <| n (run 8) -- pentatonic selection of open 12th synth samples
d1 $ slow 4 $ s "lighter" <| n (run 33) -- short quiet noisy hits high pitch meh
d1 $ s "linnhats" <| n (run 6) -- wisott
d1 $ s "mash" <| n (run 2) -- low synth tom sound and sort of glitch sound, why
d1 $ s "mash2" <| n (run 4) -- longish low syntom sounds
d1 $ s "metal" <| n (run 10) -- a tiny high metal tink at 10 pitches
d1 $ s "metal" <| n (run 10) # up (-24) -- iya
d1 $ s "miniyeah" <| n (run 4) # up (-24) -- very short glitchy sounds, better -24
d1 $ slow 8 $ s "moog" <| n (run 7) -- long low synth notes, various pitches
d1 $ s "mouth" <| n (run 15) -- iya short vocal sounds?
d1 $ s "msg" <| n (run 9) -- subtle quiet hits
d1 $ s "noise2" <| n (run 8) -- 8 short noise hits, three much louder than the others
d1 $ s "notes" <| n (run 15) -- same as newnotes, sines
d1 $ slow 4 $ s "numbers" <| n (run 9) -- female voice individual numbers
d1 $ s "off" -- single short glitchy bass note C#
d1 $ s "peri" <| n (run 15) -- collection of synth hits, ok
d1 $ s "popkick" <| n (run 10) -- kicks, but also tuned-ish in there
d1 $ slow 4 $ s "print" <| n (run 11) -- dot matrix printer sounds, ok!
d1 $ s "sine" <| n (run 6) -- sines with blunt envelopes, some very low
d1 $ slow 4 $ s "stab" <| n (run 23) -- polysynth/fm hits, sort of pitched not really
d1 $ s "stomp" <| n (run 10) -- mostly kicks
d1 $ slow 8 $ s "tabla" <| n (run 26) -- both hits and gestures
d1 $ slow 8 $ s "tabla2" <| n (run 46) -- multisampled single hits
d1 $ s "v" <| n (run 6) -- 6 mixed electronic sounds, kind of a kit
d1 $ s "voodoo" <| n (run 5) -- actually quite a nice five sound kit
d1 $ s "xmas" -- voice saying 'merry christmas'
d1 $ slow 2 $ s "yeah" <| n (run 31) -- big selection of short clicks and pops, usable

d1 silence

d1 $ stack[
    n "6 8 6 8" # "bass",
    n "~ 9 ~ 9" # "hh",
    s "noise" <| n (run 16)
 ] # room 0.5

d2 $ s "tb303" <| n (run 12)
  # resonance (range 0.02 0.7 $ slow 2 $ sine )
  # gain 1.3
  
d1 $ "[gabba*4, hh*8, [~ cp]]" # gain 1.2

d1 $ s "sine"
  # octave 3 
  # accelerate "0.2" 

d2 $ s "tb303" <| n (run 16)

d2 $ s "sin" 
  |>| note ("[c e b a]"  -- some melodic line 
            + "[-12,0,3,7]"  -- add some harmonics to each note
            - 12             -- shift one octave down (everything)
            + "[0 5 7 0]/8"  -- some global structure (shift base note every two cycles)
           )
 |>| gain "[1@3 0]*12"       -- chop and separate notes a bit


d1
  $ struct "1(<4>,8)"
  $ (# gain (range 0.9 1.1 (slow 1 isaw)))
  $ slow 2 $ note "b5" # s "bd"
  + up "{-7 -5 0 2 3 -5 -7 2 0 -5 3 2}%8"

d2 $ jux rev $ n "5 ~ 1 ~" # s "gabba"

d3 $ rev $ n "1 2 4 5 9 0 9 2" # s "sine"

d4 $ n "1 2 8 3" # s "future" 
   # gain 1.3

